X:1
T:Erat Jesus - Vecchi
T:James Gibb editions
T:#
%%score [ 1 2 3 4 ]
L:1/8
Q:1/4=100
M:4/4
K:C
V:1 treble nm="Soprano" snm="S"
V:2 treble nm="Alto" snm="A"
V:3 treble nm="Tenor" snm="T"
V:4 treble nm="Bass" snm="B"
V:1
"^Luke 11: 14" z8 | z8 | d6 B2 | e4 d4 | z2 G2 d3 d | e2 c2 (BcdA |[M:2/2] Bc d3 c/B/cB | %7
w: ||E- rat|Je- sus|e- ji- ci-|ens dae- mo- * * *||
 d3 c/B/ AGAB | c2) e2 d4 | z2 G2 d3 d | e2 c2 (B3 A/G/ | A2 A2 G4 | z2 d2 e2 e2 | g6 f2 | e4 d4- | %15
w: |* ni- um,|e- ji- ci-|ens dae- mo\- * *|* ni- um,|Et il- lud|e- rat|mu- tum,|
 d4 z2 G2 | A2 A2 c4- | c2 B2 A4 | G2 d4 B2 | c4 d2 e2- | e2 c2 B2 d2- | d2 e2 d4 | z2 c2 gfgd | %23
w: * et|il- lud e\-|* rat mu-|tum. Et cum|e- je- cis\-|* set dae- mo\-|* ni- um,|dae- mo\- * * *|
 f3 e/d/ e2 dc | B3 A/G/ A2) A2 ||[M:3/2] x12 |[M:3/2][Q:1/4=200] B8 z4 | B4 A4 B4 | %28
w: |* * * * ni-||um,|lo- cu- tus|
 (c2 B2 c2 d2 e4) | d4 d4 d4 | e4 (g6 f2 | e2 d2 c8) ||[M:2/2] x8 |[M:2/2] B8- | B8 | z4 z2 G2 | %36
w: est, * * * *|lo- cu- tus|est mu\- *|||tus,||Ed|
 G2 G2 A2 ^F2 | G2 (d3 cBA | Bc d2) G2 (g2- | gf e4 d2) | e4 z4 | z2 d2 d2 d2 | e2 ^c2 d2 (d2- | %43
w: ad- mi- ra- tae|sunt tur\- * * *|* * * bae, tur\-||bae,|ed ad- mi-|ra- tae sunt tur\-|
 d=cBA Bc d2) | G4 z2 G2 | G2 G2 (A3 B | c2) A2 G4 | z2 c2 c2 c2 | d2 B2 c4- | c2 d2 d2 d2 | %50
w: |bae, ed|ad- mi- ra\- *|* tae sunt|ed ad- mi-|ra- tae sunt,|* ed ad- mi-|
 e2 ^c2 d4 | (e3 d cBcd | ef e3 d d2- | dc c4 BA | G2 A3 G G2- | G2 ^F2)[Q:1/4=98] G4- | %56
w: ra- tae sunt|tur\- * * * * *||||* * bae.|
[Q:1/4=93] G8 |[Q:1/4=86] G8 |[Q:1/4=84] !fermata!G8 |] %59
w: |||
V:2
"^J" G6 E2 | A4 G4 |"^Erat Jesus" z2 D2 G3 G | E2 C2 (G^FGD | %4
w: E- rat|Je- sus|e- ji- ci-|ens dae- mo\- * * *|
 E=F"^Orazio Vecchi\n(1550-1605)" G3 ^F/E/FG | CDE=F G3 F/E/ |[M:2/2] DE^FG E3 D/E/ | ^F2 G4) F2 | %8
w: |||* * ni-|
 G2 c2 (BABA | c2 B3 A/G/A)B | G4 z4 | z2 D2 E2 E2 | G6 C2 | z2 G2 A2 A2 | (c6 BA | B2 A4) G2- | %16
w: um, dae- mo\- * * *|* * * * * ni-|um,|Et il- lud|e- rat,|et il- lud|e\- * *|* * rat|
 G2 (F2 E2 CD | E=F G4 ^F2) | G4 z2 G2 | E2 F4 G2 | A4 (G3 A | BG c4) B2 | (cBcA B2) B2 | %23
w: * mu- * * *||tum. Et|cum e- je-|cis- set *|* * * dae-|mo\- * * * * ni-|
 A3 G (GFGA | GE G4) ^F2 ||[M:3/2] x12 |[M:3/2] G8 z4 | G4 ^F4 G4 | G12 | B4 A4 B4 | %30
w: um, dae- mo\- * * *|* * * ni-||um,|lo- cu- tus|est,|lo- cu- tus|
 c4 (C2 D2 E2 =F2 | G8 ^F4) ||[M:2/2] x8 |[M:2/2] G8- | G8 | z2 D2 D2 D2 | E2 B,2 (D3 C | %37
w: est mu\- * * *|||tus,||Ed ad- mi-|ra- tae * *|
 B,A, G,2) z2 (G2- | GA B2 c3 B/A/ | G2) A2 z2 G2 | G2 G2 A2 ^F2 | (G3 F/E/ DE F2) | %42
w: * * * tur\-||* bae, ed|ad- mi- ra- tae|sunt * * * * *|
 (GE G3 ^F/E/FE | G2 D4 (GF | EDEF G2) C2 | z2 C4 C2 | C2 D2 B,2 C2- | C2 A,B, CD ED/C/ | %48
w: tur\- * * * * * *|* bae, tur\- *|* * * * * bae,|ed ad-|mi- ra- tae sunt|* tur\- * * * * * *|
 B,C D2) E4 | z2 A2 (B4- | B2 AG A2) BG | G2 G2 (A3 G/F/ | E2) A2 F2 _B2 | A4 z2 D2 | %54
w: * * * bae,|sunt tur\-|* * * * bae, ed|ad- mi- ra\- * *|* tae sunt tur-|bae, ed|
 D2 D2 E2 ^C2 | D2 (D3 CB,A, | G,A, B,A,/B,/ C3 D | E2 D2 C4) | !fermata!B,8 |] %59
w: ad- mi- ra- tae|sunt tur\- * * *|||bae.|
V:3
 z8 | z8 | z8 | z8 | z8 | z8 |[M:2/2][K:treble-8] z8 | z2 G2 d3 d | e2 c2 (g^fgd | e=f g3 ^f/e/fg | %10
w: |||||||e- ji\-- ci-|ens dae- mo\- * * *||
 cdef ge g2- | g2 ^f2 g4 | z8 | z4 z2 d2 | e2 e2 (g4- | g2 f2 e4) | d4 z4 | z8 | z8 | z8 | %20
w: |* ni- um,||Et|il- lud e\-||rat.||||
 z4 z2 g2- | g2 e2 f2 g2 | a4 g2 G2 | dcdB cd e2- | ed/c/ B2 c2) d2 ||[M:3/2] x12 | %26
w: Et|* cum e- je-|cis- set dae-|mo- * * * * * *|* * * * * ni-||
[M:3/2][K:treble-8] G8 z4 | d4 d4 d4 | (e2 d2 e2 f2 g4) | g4 ^f4 g4 | g4 (e6 d2 | c2 d2 e4) c4 || %32
w: um,|lo- cu- tus|est, * * * *|lo- cu- tus|est mu\- *|* * * tus,|
[M:2/2] x8 |[M:2/2][K:treble-8] z2 d2 d2 d2 | e2 B2 d4 | (c2 BA B4- | B2) G2 z2 (d2- | %37
w: |Ed ad- mi-|ra- tae sunt|tur\- * * *|* bae, tur\-|
 dcBA Bc d2) | G2 (gf edcd | e2) A2 z4 | z2 c2 c2 c2 | d2 B4 A2 | (B2 AG A4) | G8 | z4 e4 | %45
w: |bae, tur\- * * * * *|* bae,|ed ad- mi-|ra- tae sunt|tur\- * * *|bae,|ed|
 e2 e2 (f3 g | agfe d2) e2 | A2 f2 e4 | z2 g2 g2 g2 | a2 ^f2 (g3 =f | ed e2) (^f2 g2) | %51
w: ad- mi- ra\- *|* * * * * tae|sunt tur- bae,|ed ad- mi-|ra- tae sunt *|* * * tur\- *|
 c2 e2 e2 e2 | c4 d3 e | f2 e2 g2 (GA | Bc A2 B2 AG | A4) G2 d2 | d2 d2 e4 | c2 d2 e4 | %58
w: bae, ed ad- mi-|ra\- * *|* tae sunt tur\- *||* bae, ed|ad- mi- ra-|tae sunt tur-|
 !fermata!d8 |] %59
w: bae.|
V:4
 z8 | z8 | z8 | z8 | z8 | z8 |[M:2/2] z8 | z8 | z8 | z8 | z8 |[M:2/2] z8 | z8 | z8 | z8 | z8 | z8 | %17
w: |||||||||||||||||
 z8 | z8 |[M:2/2] z8 | z8 | z8 | z8 | z8 | z8 || z8 x4 |[M:3/2][K:bass] z12 | G,4 D,4 G,4 | C,12 | %29
w: ||||||||||lo- cu- tus|est,|
 G,4 D,4 G,4 | C,8 (C4- | C2 B,2 A,8) ||[M:2/2] x8 |[M:2/2] G,8 | z2 G,2 G,2 G,2 | %35
w: lo- cu- tus|est mu\-|||tus,|Ed ad- mi-|
 A,2 ^F,2 (G,3 =F, | E,4) D,4 | G,8 | z4 C4 | C2 C2 D2 B,2 | (C3 B, A,4) | (G,6 F,2 | E,4) D,4 | %43
w: ra- tae sunt *|* tur-|bae,|ed|ad- mi- ra- tae|sunt * *|tur\- *|* bae,|
 z2 B,2 B,2 B,2 | C4 C,4 | z4 F,4 | F,2 F,2 G,2 E,2 | (F,3 G, A,4) | G,4 C,4 | z8 | z8 | z4 A,4 | %52
w: ed ad- mi-|ra- tae,|ed|ad- mi- ra- tae|sunt * *|tur- bae,|||ed|
 A,2 A,2 _B,2 G,2 | A,4 (G,4- | G,2 F,2 E,4) | D,4 (D3 C | B,A,G,F, E,D, C,2- | C,2 B,,2 C,4) | %58
w: ad- mi- ra- tae|sunt tur\-||bae, tur\- *|||
 !fermata!G,8 |] %59
w: bae.|

